icons/Logos/firefox-line.svg

<svg viewBox="0 0 24 24" xmlns="http://www.w3.org/2000/svg"><path d="M12.001 2C17.5238 2 22.001 6.47715 22.001 12C22.001 17.5228 17.5238 22 12.001 22C6.47813 22 2.00098 17.5228 2.00098 12C2.00098 10.5365 2.31538 9.14635 2.88033 7.89353C3.34744 6.95503 4.11409 6.01955 4.73082 5.7004C4.07759 6.98266 3.75823 8.24073 3.69049 9.08266C4.14533 7.58266 5.00622 6.32621 6.21106 5.43911C8.27719 3.92016 11.059 3.85202 12.1671 4.81976C10.1107 5.52581 7.87073 8.36653 8.36428 11.6952C8.44419 12.2447 8.60906 12.7785 8.85299 13.2774C8.46912 12.2661 8.43525 10.8435 9.05461 9.91935C9.74654 8.88911 10.7332 8.67137 11.2607 8.78266C11.0526 8.73911 10.5929 9.61936 10.5252 9.77419C10.3523 10.1679 10.2664 10.5943 10.2736 11.0242C10.2888 11.9223 10.6594 12.7778 11.3042 13.4032C13.2256 15.2754 16.3268 14.5387 17.7155 12.4016C18.6687 10.9306 18.7848 8.43427 17.5607 6.4504C17.2554 5.96696 16.8913 5.52325 16.4768 5.12944C14.6262 3.36387 11.9979 2.56054 9.49503 2.92549C8.38907 3.10214 7.44765 3.42052 6.67077 3.88065C7.75554 2.79776 9.9123 2 12.001 2ZM6.87552 7.7048C4.62257 8.48634 3.37469 10.8751 4.29738 14.165C5.22008 17.4549 8.19356 19.8873 11.7518 19.9962L12.001 20C16.2525 20 19.7295 16.6835 19.9858 12.4965L19.995 12.284C19.8654 12.6327 19.7118 12.958 19.5321 13.2648L19.3925 13.4914C17.2881 16.7299 12.7109 17.5664 9.91169 14.8388C9.52745 14.4661 9.20448 14.042 8.94958 13.5821L8.84398 13.381C7.10788 12.994 6.26027 12.0549 6.30116 10.5637C6.32833 9.5728 6.53175 8.6049 6.87552 7.7048Z"/></svg>

<svg xmlns="http://www.w3.org/2000/svg" viewBox="0 0 24 24">
    <g>
        <path fill="none" d="M0 0h24v24H0z"/>
        <path fill-rule="nonzero" d="M12 2c5.523 0 10 4.477 10 10s-4.477 10-10 10S2 17.523 2 12c0-1.464.314-2.854.88-4.106.466-.939 1.233-1.874 1.85-2.194-.653 1.283-.973 2.54-1.04 3.383.454-1.5 1.315-2.757 2.52-3.644 2.066-1.519 4.848-1.587 5.956-.62-2.056.707-4.296 3.548-3.803 6.876.08.55.245 1.084.489 1.582-.384-1.01-.418-2.433.202-3.358.692-1.03 1.678-1.248 2.206-1.136-.208-.044-.668.836-.736.991-.173.394-.259.82-.251 1.25a3.395 3.395 0 0 0 1.03 2.38c1.922 1.871 5.023 1.135 6.412-1.002.953-1.471 1.069-3.968-.155-5.952a6.915 6.915 0 0 0-1.084-1.32c-1.85-1.766-4.48-2.57-6.982-2.205-1.106.177-2.047.496-2.824.956C7.755 2.798 9.91 2 12 2zM6.875 7.705c-2.253.781-3.501 3.17-2.579 6.46a8.004 8.004 0 0 0 7.455 5.831L12 20a8 8 0 0 0 7.985-7.504l.009-.212c-.13.349-.283.674-.463.98l-.14.227c-2.104 3.239-6.681 4.075-9.48 1.348a5.392 5.392 0 0 1-.962-1.257l-.106-.201c-1.736-.387-2.584-1.326-2.543-2.817.027-.991.23-1.96.575-2.86z"/>
    </g>
</svg>
